src/pos-icons/chess-king.svg

<svg height="24" viewBox="0 0 24 24" width="24" xmlns="http://www.w3.org/2000/svg"><path d="m19 22h-14v-2h14zm-2-12c-1.42 0-2.74.77-3.45 2h-.55v-5h3v-2h-3v-3h-2v3h-3v2h3v5h-.55c-1.1-1.91-3.55-2.57-5.45-1.46-1.93 1.1-2.58 3.55-1.5 5.46.74 1.24 2.07 2 3.5 2h10a4 4 0 0 0 4-4 4 4 0 0 0 -4-4z"/></svg>

<?xml version="1.0" encoding="UTF-8"?><!DOCTYPE svg PUBLIC "-//W3C//DTD SVG 1.1//EN" "http://www.w3.org/Graphics/SVG/1.1/DTD/svg11.dtd"><svg xmlns="http://www.w3.org/2000/svg" xmlns:xlink="http://www.w3.org/1999/xlink" version="1.1" id="mdi-chess-king" width="24" height="24" viewBox="0 0 24 24"><path d="M19,22H5V20H19V22M17,10C15.58,10 14.26,10.77 13.55,12H13V7H16V5H13V2H11V5H8V7H11V12H10.45C9.35,10.09 6.9,9.43 5,10.54C3.07,11.64 2.42,14.09 3.5,16C4.24,17.24 5.57,18 7,18H17A4,4 0 0,0 21,14A4,4 0 0,0 17,10Z" /></svg>
